symbols/web/cast_connected/materialsymbolssharp/cast_connected_wght500gradN25_48px.svg

<svg xmlns="http://www.w3.org/2000/svg" height="48" width="48"><path d="M37.7 14.25H9.5v6.7q4.9 1.55 8.175 4.725Q20.95 28.85 22.6 33.75h15.1ZM4 7.9h40.1v32.15H23.65V36.8H40.8V11.2H7.3v9.05H4Zm0 32.15h5q0-2.15-1.475-3.675T4 34.85Zm7.85 0h3.05q0-4.6-3.2-7.85T4 28.95V32q3.3 0 5.575 2.35 2.275 2.35 2.275 5.7ZM4 23.1v3q2.9 0 5.4 1.1 2.5 1.1 4.35 3 1.85 1.9 2.925 4.425 1.075 2.525 1.075 5.425h3q0-3.5-1.3-6.575T15.875 28.1q-2.275-2.3-5.35-3.65Q7.45 23.1 4 23.1Zm18.4 2.55Z"/></svg>

<svg xmlns="http://www.w3.org/2000/svg" height="48" width="48"><path d="M37.7 14.25H9.5V20.95Q14.4 22.5 17.675 25.675Q20.95 28.85 22.6 33.75H37.7ZM4 7.9H44.1V40.05H23.65V36.8H40.8V11.2H7.3V20.25H4ZM4 40.05H9Q9 37.9 7.525 36.375Q6.05 34.85 4 34.85ZM11.85 40.05H14.9Q14.9 35.45 11.7 32.2Q8.5 28.95 4 28.95V32Q7.3 32 9.575 34.35Q11.85 36.7 11.85 40.05ZM4 23.1V26.1Q6.9 26.1 9.4 27.2Q11.9 28.3 13.75 30.2Q15.6 32.1 16.675 34.625Q17.75 37.15 17.75 40.05H20.75Q20.75 36.55 19.45 33.475Q18.15 30.4 15.875 28.1Q13.6 25.8 10.525 24.45Q7.45 23.1 4 23.1ZM22.4 25.65Z"/></svg>
